src/components/sections/images/logo-white.svg

<svg width="60" height="28" viewBox="0 0 60 28" fill="none" xmlns="http://www.w3.org/2000/svg">
<path d="M15.2577 22.0279H11.3991V6.64111H15.2577V22.0279Z" fill="white"/>
<path d="M13.4123 4.63414C12.8307 4.63414 12.3162 4.42229 11.8688 3.9986C11.4438 3.55261 11.2313 3.03971 11.2313 2.45992C11.2313 1.88013 11.4438 1.37839 11.8688 0.954695C12.3162 0.508702 12.8307 0.285706 13.4123 0.285706C13.9939 0.285706 14.4972 0.508702 14.9222 0.954695C15.3696 1.37839 15.5933 1.88013 15.5933 2.45992C15.5933 3.03971 15.3696 3.55261 14.9222 3.9986C14.4972 4.42229 13.9939 4.63414 13.4123 4.63414Z" fill="white"/>
<path d="M55.8058 22.0279H59.6645V6.64111H55.8058V22.0279Z" fill="white"/>
<path d="M56.2755 3.9986C56.7229 4.42229 57.2374 4.63414 57.819 4.63414C58.4006 4.63414 58.9039 4.42229 59.3289 3.9986C59.7763 3.55261 60 3.03971 60 2.45992C60 1.88013 59.7763 1.37839 59.3289 0.954695C58.9039 0.508702 58.4006 0.285706 57.819 0.285706C57.2374 0.285706 56.7229 0.508702 56.2755 0.954695C55.8505 1.37839 55.638 1.88013 55.638 2.45992C55.638 3.03971 55.8505 3.55261 56.2755 3.9986Z" fill="white"/>
<path d="M49.8511 22.0279H53.7098V0.954693H49.8511V22.0279Z" fill="white"/>
<path fill-rule="evenodd" clip-rule="evenodd" d="M39.7279 6.47386C40.399 6.47386 41.003 6.56306 41.5398 6.74146C42.0767 6.91986 42.5353 7.1094 42.9155 7.3101C43.3405 7.5554 43.732 7.83414 44.0899 8.14634L44.761 6.64111H47.613V21.0244C47.613 23.0314 46.9643 24.6481 45.6669 25.8746C44.3919 27.1011 42.58 27.7143 40.2312 27.7143C38.7996 27.7143 37.6364 27.4578 36.7417 26.945C35.8693 26.4321 35.1758 25.8523 34.6613 25.2056C34.0797 24.4697 33.6435 23.6335 33.3527 22.6969H37.2114C37.368 22.9868 37.5805 23.2432 37.8489 23.4662C38.095 23.6446 38.4082 23.8119 38.7884 23.968C39.1687 24.124 39.6496 24.2021 40.2312 24.2021C41.3273 24.2021 42.1885 23.9011 42.8149 23.299C43.4412 22.7192 43.7544 21.961 43.7544 21.0244V19.8537C43.4412 20.1659 43.0833 20.4446 42.6807 20.6899C42.3228 20.9129 41.8977 21.1136 41.4056 21.292C40.9135 21.4481 40.3543 21.5261 39.7279 21.5261C38.7661 21.5261 37.8489 21.3366 36.9765 20.9575C36.1265 20.5784 35.3771 20.0544 34.7284 19.3854C34.1021 18.7164 33.5988 17.9247 33.2185 17.0105C32.8606 16.0962 32.6817 15.0927 32.6817 14C32.6817 12.9073 32.8606 11.9038 33.2185 10.9895C33.5988 10.0753 34.1021 9.28362 34.7284 8.61463C35.3771 7.94564 36.1265 7.4216 36.9765 7.0425C37.8489 6.66341 38.7661 6.47386 39.7279 6.47386ZM36.5403 14C36.5403 14.5352 36.6298 15.0369 36.8088 15.5052C37.0101 15.9735 37.2785 16.3861 37.6141 16.7429C37.9496 17.0774 38.3411 17.3449 38.7884 17.5456C39.2358 17.7463 39.7168 17.8467 40.2312 17.8467C40.7234 17.8467 41.1931 17.7463 41.6405 17.5456C42.0879 17.3449 42.4793 17.0774 42.8149 16.7429C43.1504 16.3861 43.4188 15.9735 43.6202 15.5052C43.8215 15.0369 43.9221 14.5352 43.9221 14C43.9221 13.4648 43.8215 12.9631 43.6202 12.4948C43.4188 12.0265 43.1504 11.6251 42.8149 11.2906C42.4793 10.9338 42.0879 10.655 41.6405 10.4544C41.1931 10.2537 40.7234 10.1533 40.2312 10.1533C39.7168 10.1533 39.2358 10.2537 38.7884 10.4544C38.3411 10.655 37.9496 10.9338 37.6141 11.2906C37.2785 11.6251 37.0101 12.0265 36.8088 12.4948C36.6298 12.9631 36.5403 13.4648 36.5403 14Z" fill="white"/>
<path d="M27.6355 6.94215C26.875 6.62996 26.0361 6.47386 25.119 6.47386C24.4703 6.47386 23.8775 6.56306 23.3407 6.74146C22.8262 6.91986 22.3788 7.1094 21.9985 7.3101C21.5511 7.5554 21.1373 7.83414 20.757 8.14634L20.0859 6.64111H17.2339V22.0279H21.0926V13.4983C21.0926 12.4948 21.3834 11.692 21.965 11.0899C22.5689 10.4655 23.3407 10.1533 24.2802 10.1533C25.2197 10.1533 25.9802 10.4655 26.5618 11.0899C27.1658 11.692 27.4678 12.4948 27.4678 13.4983V22.0279H31.3264V12.9965C31.3264 11.993 31.1698 11.0899 30.8567 10.2871C30.5659 9.48432 30.1409 8.80418 29.5816 8.24669C29.0448 7.66689 28.3961 7.23205 27.6355 6.94215Z" fill="white"/>
<path d="M6.20743 2.96166H2.85206V5.13588C2.85206 6.36236 2.23691 6.97561 1.00661 6.97561H0V10.1533H2.34876V16.676C2.34876 17.5233 2.47179 18.2815 2.71785 18.9505C2.98628 19.6195 3.34418 20.1993 3.79156 20.6899C4.26131 21.1805 4.80936 21.5596 5.43569 21.8272C6.0844 22.0725 6.78902 22.1951 7.54957 22.1951C8.04169 22.1951 8.47789 22.1394 8.85817 22.0279C9.05949 21.9833 9.23844 21.9275 9.39502 21.8606V18.5157C9.30555 18.5603 9.21607 18.5937 9.1266 18.616C9.03712 18.6383 8.93646 18.6606 8.82461 18.6829H8.38841C7.71734 18.6829 7.18048 18.4934 6.77784 18.1143C6.39756 17.7129 6.20743 17.1777 6.20743 16.5087V10.1533H9.56279V6.64111H6.20743V2.96166Z" fill="white"/>
</svg>

<svg width="60" height="28" fill="none" xmlns="http://www.w3.org/2000/svg"><path d="M15.258 22.028h-3.859V6.64h3.859v15.387zM13.412 4.634c-.581 0-1.096-.212-1.543-.635-.425-.446-.638-.96-.638-1.54 0-.579.213-1.08.638-1.504.447-.446.962-.67 1.543-.67.582 0 1.085.224 1.51.67.448.423.671.925.671 1.505 0 .58-.223 1.093-.67 1.539a2.067 2.067 0 0 1-1.51.635zM55.806 22.028h3.858V6.64h-3.858v15.387zM56.276 3.999c.447.423.961.635 1.543.635s1.085-.212 1.51-.635c.447-.446.671-.96.671-1.54 0-.579-.224-1.08-.671-1.504-.425-.446-.928-.67-1.51-.67s-1.096.224-1.544.67c-.425.423-.637.925-.637 1.505 0 .58.212 1.093.638 1.539zM49.851 22.028h3.859V.955H49.85v21.073z" fill="#fff"/><path fill-rule="evenodd" clip-rule="evenodd" d="M39.728 6.474c.671 0 1.275.09 1.812.267.537.179.995.368 1.376.57.425.244.816.523 1.174.835l.671-1.505h2.852v14.383c0 2.007-.649 3.624-1.946 4.85-1.275 1.227-3.087 1.84-5.436 1.84-1.431 0-2.595-.256-3.49-.769-.872-.513-1.565-1.093-2.08-1.74a7.675 7.675 0 0 1-1.308-2.508h3.858c.157.29.37.546.638.77.246.178.56.345.94.501.38.156.86.234 1.442.234 1.096 0 1.957-.3 2.584-.903.626-.58.94-1.338.94-2.275v-1.17a5.75 5.75 0 0 1-1.074.836 6.787 6.787 0 0 1-1.275.602c-.492.156-1.052.234-1.678.234a6.83 6.83 0 0 1-2.752-.569c-.85-.379-1.599-.903-2.248-1.572a7.845 7.845 0 0 1-1.51-2.375c-.357-.914-.536-1.917-.536-3.01 0-1.093.179-2.096.536-3.01a7.844 7.844 0 0 1 1.51-2.375 7.174 7.174 0 0 1 2.248-1.572 6.831 6.831 0 0 1 2.752-.57zM36.54 14c0 .535.09 1.037.269 1.505.201.468.47.881.805 1.238.336.334.727.602 1.174.803.448.2.929.3 1.443.3.492 0 .962-.1 1.41-.3.447-.201.838-.469 1.174-.803.335-.357.604-.77.805-1.238A3.77 3.77 0 0 0 43.922 14c0-.535-.1-1.037-.302-1.505a3.797 3.797 0 0 0-.805-1.204 3.643 3.643 0 0 0-1.174-.837 3.405 3.405 0 0 0-1.41-.3c-.514 0-.995.1-1.443.3-.447.201-.838.48-1.174.837a3.794 3.794 0 0 0-.805 1.204A4.18 4.18 0 0 0 36.54 14z" fill="#fff"/><path d="M27.636 6.942c-.761-.312-1.6-.468-2.517-.468-.649 0-1.241.09-1.778.267a9.698 9.698 0 0 0-1.343.57 8.05 8.05 0 0 0-1.241.835l-.671-1.505h-2.852v15.387h3.859v-8.53c0-1.003.29-1.806.872-2.408.604-.624 1.376-.937 2.315-.937.94 0 1.7.313 2.282.937.604.602.906 1.405.906 2.408v8.53h3.858v-9.031c0-1.004-.156-1.907-.47-2.71a5.46 5.46 0 0 0-1.274-2.04 5.075 5.075 0 0 0-1.947-1.305zM6.207 2.962H2.852v2.174c0 1.226-.615 1.84-1.845 1.84H0v3.177h2.349v6.523c0 .847.123 1.606.369 2.275a5.706 5.706 0 0 0 1.074 1.739c.47.49 1.017.87 1.644 1.137a5.929 5.929 0 0 0 2.114.368c.492 0 .928-.056 1.308-.167.201-.045.38-.1.537-.167v-3.345c-.09.044-.179.078-.268.1-.09.022-.19.045-.302.067h-.437c-.67 0-1.208-.19-1.61-.569-.38-.401-.57-.936-.57-1.605v-6.356h3.355V6.641H6.207v-3.68z" fill="#fff"/></svg>
